X: 53
T: Whip her and Gird her
%R: jig
B: Stewart "A Select Collection of Airs, Jigs, Marches and Reels", ca.1784, p.24,25 #53
F: http://imslp.org/wiki/A_Select_Collection_of_Airs,_Jigs,_Marches_and_Reels_%28Various%29
Z: 2017 John Chambers <jc:trillian.mit.edu>
M: 6/8
L: 1/8
K: G
|:\
G>AG GB/c/d/B/ | G>AG (TB2A) | G>AG GB/c/d/B/ | A=FA (c2A) |\
G>AG GB/c/d/B/ | GAB gdB | cgc BgB | A=FA (c2A) :|
|:\
g3 def | gfe dcB | (g/f/e/f/g) de=f | A=FA (c2A) |\
g3 def | gfe dcB | cgc BgB | A=FA (c2A) :|
|:\
BGG ADD | BGG (B/c/d/c/B/A/) | BGG ADD | AFA (c2A) |\
BGG ADD | BGB gdB | cgc BgB | A=FA (c2A) :|
|:\
gdB gdB | GAB (d2B) | gdB gdB | A=FA (c2A) |\
gdB gdB | GAB gdB | cgc BgB | A=FA (c2A) :|

%%sep 1 1 500
%%sep 1 1 500

